X: 40803
T: Tra Va Ruggit Creest
R: reel
M: 4/4
K: Adorian
|:E2 A2 A3 c|BAGA Bcd2|efed cdef|gfge dcBA|
E2A2A3c|BAGA Bcd2|egfe dcBA|1 E2A2 ABAG:|2 E2A2ABcd||
|:e2ec e2ec|eddc d=fed|c2cA c2cA|cBBA BdcB|
cAEA cAEA|dBGB dBGB|egfe dcBA|1 E2A2 ABcd:|2 E2A2 ABAG||

